X: 5681
T: Byrne's
R: hornpipe
M: 4/4
K: Dmajor
|:F2 GE AF Dd|cA (3Bcd ecAe|fdge fded|cAcd ecAG|
F2 GE AF Dd|cA (3Bcd ecAe|fdge fded|Addc d2:|
|:cd|eA (3AAA efge|afdg bgeg|afdf geaf|gefd ecAG|
F2 GE AF Dd|cA (3Bcd ecAe|fdge fdec|Addc d2:|

